!!!OTL: 1269. Martinslied.
!!!ARE: Europa, Mitteleuropa, Deutschland, Bergisches Land, Barmen
!!!SCT: E1269
!!!TXL: @@KSH
!!!YEM: Copyright 1995, estate of Helmut Schaffrath.
**kern	**text
*ICvox	*
*M2/4	*
*k[b-]	*
*F:	*
=1	=1
!LO:TX:a:t=Aus Barmen. Erk II, 2, 17.	!
{8cc	Mä-
8cc	-ten
8cc	es
8dd	en
=2	=2
4cc	good
8a	Mann,
8r}	.
=3	=3
{8cc	de
8cc	us
8cc	brav
8dd	wat
=4	=4
8cc	ge-
8cc	-wen
8a}	kann
{8b-	de
=5	=5
8cc	Aep-
8cc	-pel
8cc	on
8dd	de
=6	=6
4cc	Bie-
8a}	-ren,
{8b-	de
=7	=7
8cc	Nö-
8cc	-te
8cc	gon
8dd	woll
=8	=8
4cc	met.
4r}	.
=9	=9
{8cc	Jon-
8b-	-ge
8a	Frau,
8dd	trapp
=10	=10
8cc	op
8b-	on
4a}	af,
=11	=11
{8cc	Jon-
8b-	-ge
8a	Frau,
8dd	trapp
=12	=12
8cc	op
8b-	on
4a}	af,
=13	=13
{8cc	taß
8cc	wol
8cc	en
8dd	den
=14	=14
8cc	No-
8b-	-ten-
4a}	-ſack!
=15	=15
{8cc	taß
8cc	der
8cc	nich
8cc	dar-
=16	=16
4dd	-ne-
8cc}	-wen
{8cc	ih
=17	=17
8b-	könnt
8b-	us
8a	brav
8cc	wat
=18	=18
4g	ge-
8f	-wen!
8r}	.
=19	=19
{4cc	Gott
8a	wat!
8r	.
=20	=20
4cc	holt
8a	wat!
8r}	.
=21	=21
{8dd	op
8cc	et
8b-	Joh-
8a	-er
=22	=22
4g	wier
8f	wat.
8r}	.
==	==
!!!AGN: Ansinge -, Brauchtums - Lied, Kirchen - Fest, Sankt Martin
!!!ONB: ESAC (Essen Associative Code) Database: ERK3
!!!AMT: simple duple
!!!AIN: vox
!!!EED: Helmut Schaffrath
!!!EEV: 1.0
!!!GTL: Ansingelieder an Volks- und Kirchenfesten.
!!!URL-scan: https://rosdok.uni-rostock.de/mcrviewer/recordIdentifier/rosdok_ppn745177999/iview2/phys_0163.iview2?x=-218.20720142199457&y=1124.7347750613699&scale=0.5870222003877485&rotation=0&layout=singlePageLayout
!!!ENC: Anna Maria Matuszewska
!!!EEV: 2024/12/27
*-	*-
